X:1752
T:Senpolska från Torp
R:Polska
O:Torp, Medelpad
Z:ABC-transkribering av Brian Wilson
M:3/4
L:1/8
Q: 1/4=90
K:D
|: "D"A,2 DE FG | "G"Bc/B/ "D"AD FA | "D"de/d/ "A"cA ce | "A"ef/e/ "D"dAFD |
   "D"A,2 DE FG | "G"Bc/B/ "D"AD FA | "D"de/d/ "A"cA ce | "A"ef/e/ "D"d4:|
|: "D"f2 fe/f/ "G"gf | "D"fe "A"ed ee | "A"a2 a^g/a/ ba | "G"gf "D"fa d'a |
   "D"f2 fe/f/ "Em"gf | "Em"fe ed cB | "G"Bc/B/ "A"AA GG | "A"EF/E/ "D"D4:|

(:musicend:)

(:music:)
